icons/fill-new-building-office.svg

<svg xmlns="http://www.w3.org/2000/svg" width="32px" height="32px" viewBox="0 0 32 32" version="1.1">
    <title>fill-new-building-office</title>
    <g id="fill-new-building-office" stroke-width="1" fill-rule="evenodd">
        <path d="M19,29 L3,29 C2.44771525,29 2,28.5522847 2,28 C2,27.4477153 2.44771525,27 3,27 L4,27 L4,4 C4,3.44771525 4.44771525,3 5,3 L18,3 C18.5522847,3 19,3.44771525 19,4 L19,29 Z M14.5,21 L8.5,21 C7.94771525,21 7.5,21.4477153 7.5,22 C7.5,22.5522847 7.94771525,23 8.5,23 L14.5,23 C15.0522847,23 15.5,22.5522847 15.5,22 C15.5,21.4477153 15.0522847,21 14.5,21 Z M14.5,15 L8.5,15 C7.94771525,15 7.5,15.4477153 7.5,16 C7.5,16.5522847 7.94771525,17 8.5,17 L14.5,17 C15.0522847,17 15.5,16.5522847 15.5,16 C15.5,15.4477153 15.0522847,15 14.5,15 Z M14.5,9 L8.5,9 C7.94771525,9 7.5,9.44771525 7.5,10 C7.5,10.5522847 7.94771525,11 8.5,11 L14.5,11 C15.0522847,11 15.5,10.5522847 15.5,10 C15.5,9.44771525 15.0522847,9 14.5,9 Z M21,23 L24,23 C24.5128358,23 24.9355072,22.6139598 24.9932723,22.1166211 L25,22 C25,21.4477153 24.5522847,21 24,21 L21,21 L21,17 L24,17 C24.5128358,17 24.9355072,16.6139598 24.9932723,16.1166211 L25,16 C25,15.4477153 24.5522847,15 24,15 L21,15 L21,10 L27,10 C27.5522847,10 28,10.4477153 28,11 L28,27 L29,27 C29.5522847,27 30,27.4477153 30,28 C30,28.5522847 29.5522847,29 29,29 L21,29 L21,23 Z" id="&#24418;&#29366;" />
    </g>
</svg>

<svg xmlns="http://www.w3.org/2000/svg" viewBox="0 0 32 32"><path fill="currentColor" d="M19 29H3a1 1 0 0 1 0-2h1V4a1 1 0 0 1 1-1h13a1 1 0 0 1 1 1zm-4.5-8h-6a1 1 0 0 0 0 2h6a1 1 0 0 0 0-2m0-6h-6a1 1 0 0 0 0 2h6a1 1 0 0 0 0-2m0-6h-6a1 1 0 1 0 0 2h6a1 1 0 0 0 0-2M21 23h3a1 1 0 0 0 .993-.883L25 22a1 1 0 0 0-1-1h-3v-4h3a1 1 0 0 0 .993-.883L25 16a1 1 0 0 0-1-1h-3v-5h6a1 1 0 0 1 1 1v16h1a1 1 0 0 1 0 2h-8z"/></svg>
